clients/portal/components/icon/svgs/add_task.svg

<svg xmlns="http://www.w3.org/2000/svg" enable-background="new 0 0 24 24" height="24" viewBox="0 0 24 24" width="24"><rect fill="currentColor" height="24" width="24"/><path d="M22,5.18L10.59,16.6l-4.24-4.24l1.41-1.41l2.83,2.83l10-10L22,5.18z M12,20c-4.41,0-8-3.59-8-8s3.59-8,8-8 c1.57,0,3.04,0.46,4.28,1.25l1.45-1.45C16.1,2.67,14.13,2,12,2C6.48,2,2,6.48,2,12s4.48,10,10,10c1.73,0,3.36-0.44,4.78-1.22 l-1.5-1.5C14.28,19.74,13.17,20,12,20z M19,15h-3v2h3v3h2v-3h3v-2h-3v-3h-2V15z"/></svg>

<svg width="24" height="24" viewBox="0 0 24 24" fill="none" xmlns="http://www.w3.org/2000/svg">
<path d="M22 5.18L10.59 16.6L6.35 12.36L7.76 10.95L10.59 13.78L20.59 3.78L22 5.18ZM12 20C7.59 20 4 16.41 4 12C4 7.59 7.59 4 12 4C13.57 4 15.04 4.46 16.28 5.25L17.73 3.8C16.1 2.67 14.13 2 12 2C6.48 2 2 6.48 2 12C2 17.52 6.48 22 12 22C13.73 22 15.36 21.56 16.78 20.78L15.28 19.28C14.28 19.74 13.17 20 12 20ZM19 15H16V17H19V20H21V17H24V15H21V12H19V15Z" fill="#475569"/>
</svg>
